X:1
T:Standin In The Need of Prayer
T:He Arose
T:Copyright 1918 by Homer A. Rodeheaver
T:Rodeheaver's Plantation Melodies
T:Rodeheaver's Plantation Melodies
Z:Rodeheaver's Plantation Melodies
%%score [ 1 2 3 4 ]
L:1/8
Q:1/4=80
M:4/4
K:F
V:1 treble nm="Soprano" snm="S."
V:2 treble nm="Alto" snm="A."
V:3 bass nm="Tenor" snm="T."
V:4 bass nm="Bass" snm="B."
V:1
 c | AcAc A c2 c | dcBA |1 G3 B | GBGB G B2 c | dc c>A c3 :|2 GABc || d3 d c3 B | A2 G2 F3 |: %9
w: |||||||||
"^CHORUS" c | A3 c A3 c | dcBA |1 G3 B | G3 B G3 c | dc c>A c3 :|2 GABc | d3 d c3 B | %17
w: He|'rose, He 'rose, *||* He|'rose, He 'rose, *||||
 A2 G2 F3!D.C.! |] %18
w: |
V:2
 A | FAFA F A2 A | BAGF |1 E3 G | EGEG E G2 A | FF F>F F3 :|2 EFGA || F3 F F3 F | F2 E2 F3 |: z | %10
w: They|cru- ci- fied my Sav- ior and|nailed Him to the|cross, They|cru- ci- fied my Sav- ior and|nailed Him to the cross,|cross- , And the|Lord will bear my|spi- rit home.||
 z FF z z FFF | F2 GF |1 E3 z | z EE z z EEE | F2 F>F F3 :|2 EFGF | F3 F FEFF | F2 E2 C3 |] %18
w: He rose, He 'rose, He|'rose from the|dead,|He 'rose, He 'rose, He|'rose from the dead,|dead- , And the|Lord shall bear- * * my|spi- rit home.|
V:3
 F | CFCF C F2 F | FFCC |1 C3 C | CCCC C C2 C | B,A, A,>C A,3 :|2 C2 CC || B,3 B, A,3 D | %8
 C2 B,2 A,3 |: z | z CC z z CCA, | B,A,CC |1 C3 z | z CC z z CCC | B,A, A,>C A,3 :|2 C2 CA, | %16
 B,3 B, A,B,CD | C2 B,2 [F,A,]3 |] %18
V:4
 F, | F,F,F,F, F, F,2 F, | F,F,F,F, |1 C,3 C, | C,C,C,C, C, C,2 C, | F,F, F,>F, F,3 :|2 C,2 C,F, || %7
 B,,3 B,, F,3 B,, | C,2 C,2 F,3 |: z | z F,F, z z F,F,F, | F,2 F,F, |1 C,3 z | z C,C, z z C,C,C, | %14
"_1. They crucified my Savior and nailed Him to the cross.\n\n2. And Joseph begged His body and laid it in the tomb.\n\n3. Sister Mary, she came running, a-looking for my Lord.\n\n4. An angel came from heaven and rolled the stone away," F,2 F,>F, F,3 :|2 %15
 C,2 C,F, | B,,C,D,E, F,G,A,[B,,B,] | C,2 C,2 F,,3 |] %18

